actions/16/process-stop.svg

<?xml version="1.0" encoding="UTF-8" standalone="no"?>
<svg
   xmlns:dc="http://purl.org/dc/elements/1.1/"
   xmlns:cc="http://creativecommons.org/ns#"
   xmlns:rdf="http://www.w3.org/1999/02/22-rdf-syntax-ns#"
   xmlns:svg="http://www.w3.org/2000/svg"
   xmlns="http://www.w3.org/2000/svg"
   xmlns:xlink="http://www.w3.org/1999/xlink"
   version="1.0"
   width="16"
   height="16"
   id="svg2528">
  <metadata
     id="metadata26">
    <rdf:RDF>
      <cc:Work
         rdf:about="">
        <dc:format>image/svg+xml</dc:format>
        <dc:type
           rdf:resource="http://purl.org/dc/dcmitype/StillImage" />
        <dc:title />
      </cc:Work>
    </rdf:RDF>
  </metadata>
  <defs
     id="defs2530">
    <linearGradient
       id="linearGradient2490">
      <stop
         id="stop2492"
         style="stop-color:#791235;stop-opacity:1"
         offset="0" />
      <stop
         id="stop2494"
         style="stop-color:#dd3b27;stop-opacity:1"
         offset="1" />
    </linearGradient>
    <linearGradient
       id="linearGradient3242">
      <stop
         id="stop3244"
         style="stop-color:#f8b17e;stop-opacity:1"
         offset="0" />
      <stop
         id="stop3246"
         style="stop-color:#e35d4f;stop-opacity:1"
         offset="0.26238" />
      <stop
         id="stop3248"
         style="stop-color:#c6262e;stop-opacity:1"
         offset="0.66093999" />
      <stop
         id="stop3250"
         style="stop-color:#690b54;stop-opacity:1"
         offset="1" />
    </linearGradient>
    <radialGradient
       cx="23.895569"
       cy="3.9900031"
       r="20.397499"
       fx="23.895569"
       fy="3.9900031"
       id="radialGradient3018"
       xlink:href="#linearGradient3242"
       gradientUnits="userSpaceOnUse"
       gradientTransform="matrix(0,0.8796593,-1.1611346,0,12.632931,-21.08413)" />
    <linearGradient
       x1="18.379412"
       y1="44.980297"
       x2="18.379412"
       y2="3.0816143"
       id="linearGradient3020"
       xlink:href="#linearGradient2490"
       gradientUnits="userSpaceOnUse"
       gradientTransform="matrix(0.3685738,0,0,0.3685738,-0.84577,-0.8457701)" />
    <linearGradient
       id="linearGradient4011">
      <stop
         id="stop4013"
         style="stop-color:#ffffff;stop-opacity:1"
         offset="0" />
      <stop
         id="stop4015"
         style="stop-color:#ffffff;stop-opacity:0.23529412"
         offset="0.507761" />
      <stop
         id="stop4017"
         style="stop-color:#ffffff;stop-opacity:0.15686275"
         offset="0.83456558" />
      <stop
         id="stop4019"
         style="stop-color:#ffffff;stop-opacity:0.39215687"
         offset="1" />
    </linearGradient>
    <linearGradient
       x1="71.204407"
       y1="6.2375584"
       x2="71.204407"
       y2="44.340794"
       id="linearGradient3280"
       xlink:href="#linearGradient4011"
       gradientUnits="userSpaceOnUse"
       gradientTransform="matrix(0.35135136,0,0,0.35135136,-17.203671,-0.9093005)" />
  </defs>
  <path
     d="m 8.0000011,0.50182787 c -4.1372321,0 -7.4981741,3.36093913 -7.4981741,7.49817173 0,4.1372334 3.360942,7.4981754 7.4981741,7.4981724 4.1372309,0 7.4981759,-3.360939 7.4981719,-7.4981724 0,-4.1372326 -3.360941,-7.49817173 -7.4981719,-7.49817173 z"
     id="path2555"
     style="fill:url(#radialGradient3018);fill-opacity:1;stroke:url(#linearGradient3020);stroke-width:1.00365424;stroke-linecap:round;stroke-linejoin:round;stroke-miterlimit:4;stroke-opacity:1;stroke-dasharray:none;stroke-dashoffset:0" />
  <path
     d="M 5.2624588,2.7499997 4.0000004,4.0124583 6.6046516,6.6038207 c 0.080018,0.081027 0.080018,0.211332 0,0.2923584 L 4.0000004,9.4875411 5.2624588,10.75 7.8538212,8.1586383 c 0.081026,-0.080018 0.2113312,-0.080018 0.2923584,0 L 10.737542,10.75 12,9.4875411 9.408638,6.8961791 c -0.080018,-0.081026 -0.080018,-0.2113312 0,-0.2923584 L 12,4.0124583 10.737542,2.7499997 8.1461796,5.341362 c -0.081027,0.080018 -0.211332,0.080018 -0.2923584,0 L 5.2624588,2.7499997 z"
     id="path3243"
     style="opacity:0.2;fill:#000000;fill-opacity:1;fill-rule:evenodd;stroke:none" />
  <path
     d="M 5.2624588,4.0000006 4.0000004,5.262459 6.6046516,7.8538205 c 0.080018,0.081027 0.080018,0.211332 0,0.2923592 L 4.0000004,10.737542 5.2624588,12 7.8538212,9.4086377 c 0.081026,-0.080018 0.2113312,-0.080018 0.2923584,0 L 10.737542,12 12,10.737542 9.408638,8.1461797 c -0.080018,-0.081027 -0.080018,-0.211332 0,-0.2923592 L 12,5.262459 10.737542,4.0000006 8.1461796,6.5913621 c -0.081027,0.080018 -0.211332,0.080018 -0.2923584,0 L 5.2624588,4.0000006 z"
     id="path3256"
     style="fill:#ffffff;fill-opacity:1;fill-rule:evenodd;stroke:none" />
  <path
     d="M 14.5,7.9997687 C 14.5,11.589737 11.589636,14.5 8.0000824,14.5 4.4101993,14.5 1.5,11.589703 1.5,7.9997687 1.5,4.4099694 4.4101993,1.5 8.0000824,1.5 11.589636,1.5 14.5,4.4099694 14.5,7.9997687 l 0,0 z"
     id="path8655-6"
     style="opacity:0.5;color:#000000;fill:none;stroke:url(#linearGradient3280);stroke-width:0.99999994;stroke-linecap:round;stroke-linejoin:round;stroke-miterlimit:4;stroke-opacity:1;stroke-dasharray:none;stroke-dashoffset:0;marker:none;visibility:visible;display:inline;overflow:visible;enable-background:accumulate" />
</svg>

<svg xmlns="http://www.w3.org/2000/svg" xmlns:xlink="http://www.w3.org/1999/xlink" viewBox="0 0 16 16"><defs><linearGradient id="b"><stop offset="0" stop-color="#791235"/><stop offset="1" stop-color="#dd3b27"/></linearGradient><linearGradient id="a"><stop offset="0" stop-color="#f8b17e"/><stop offset=".262" stop-color="#e35d4f"/><stop offset=".661" stop-color="#c6262e"/><stop offset="1" stop-color="#690b54"/></linearGradient><radialGradient cx="23.896" cy="3.99" r="20.397" fx="23.896" fy="3.99" id="d" xlink:href="#a" gradientUnits="userSpaceOnUse" gradientTransform="matrix(0 .87966 -1.16113 0 12.633 -21.084)"/><linearGradient x1="18.379" y1="44.98" x2="18.379" y2="3.082" id="e" xlink:href="#b" gradientUnits="userSpaceOnUse" gradientTransform="translate(-.846 -.846) scale(.36857)"/><linearGradient id="c"><stop offset="0" stop-color="#fff"/><stop offset=".508" stop-color="#fff" stop-opacity=".235"/><stop offset=".835" stop-color="#fff" stop-opacity=".157"/><stop offset="1" stop-color="#fff" stop-opacity=".392"/></linearGradient><linearGradient x1="71.204" y1="6.238" x2="71.204" y2="44.341" id="f" xlink:href="#c" gradientUnits="userSpaceOnUse" gradientTransform="translate(-17.204 -.91) scale(.35135)"/></defs><path d="M8 .502A7.503 7.503 0 0 0 .502 8 7.503 7.503 0 0 0 8 15.498 7.503 7.503 0 0 0 15.498 8 7.503 7.503 0 0 0 8 .502z" fill="url(#d)" stroke="url(#e)" stroke-width="1.004" stroke-linecap="round" stroke-linejoin="round"/><path d="M5.262 2.75L4 4.012l2.605 2.592c.08.08.08.21 0 .292L4 9.488l1.262 1.262 2.592-2.59c.08-.08.21-.08.292 0l2.592 2.59L12 9.488 9.41 6.896a.208.208 0 0 1 0-.292L12 4.012 10.738 2.75 8.146 5.34c-.08.08-.21.08-.292 0L5.262 2.75z" opacity=".2" fill-rule="evenodd"/><path d="M5.262 4L4 5.262l2.605 2.592c.08.08.08.21 0 .292L4 10.738 5.262 12l2.592-2.59c.08-.08.21-.08.292 0L10.738 12 12 10.738 9.41 8.146a.208.208 0 0 1 0-.292L12 5.262 10.738 4 8.146 6.59c-.08.08-.21.08-.292 0L5.262 4z" fill="#fff" fill-rule="evenodd"/><path d="M14.5 8a6.5 6.5 0 1 1-13 0 6.5 6.5 0 0 1 13 0z" opacity=".5" color="#000" fill="none" stroke="url(#f)" stroke-linecap="round" stroke-linejoin="round" overflow="visible"/></svg>
